X:1
T:Shinar, LMD
T:Shinar, LMD
T:Lowell Mason, 1839
T:Public Domain Courtesy of the Cyber Hymnal™
C:Lowell Mason, 1839
Z:Public Domain
Z:Courtesy of the Cyber Hymnal™
%%score ( 1 2 ) ( 3 4 )
L:1/8
Q:1/4=123
M:3/2
K:C
V:1 treble 
V:2 treble 
V:3 bass 
V:4 bass 
V:1
 C4 | E3 E E2 C2 E2 G2 | c6 [Ec]2 [Gc]2 [Ec]2 | [DB]2 [EA]2 [DG]4 [D^F]4 | [DG]8 C4 | %5
 E3 E E2 C2 E2 G2 | c6 [Ec]2 [Gc]2 [Ec]2 | [DB]2 [EA]2 [DG]4 [D^F]4 | [DG]6 [EG]2 [CE]2 [DF]2 | %9
 [EG]6 [Ac]2 [GB]2 [FA]2 | ([FA]4 [EG]2) [EG]2 [CE]2 [DF]2 | [EG]6 [Ac]2 [GB]2 [FA]2 | %12
 ([FA]4 [EG]2) E2 A2 G2 | ^F6 D2 G2 =F2 | E6 [Ec]2 [FB]2 [Gc]2 | [FA]2 [Fd]2 [Ec]4 B4 | [Ec]8 |] %17
V:2
 C4 | E3 E E2 C2 E2 G2 | c6 x6 | x12 | x8 C4 | E3 E E2 C2 E2 G2 | c6 x6 | x12 | x12 | x12 | x12 | %11
 x12 | x6 E2 A2 G2 | ^F6 D2 G2 =F2 | E6 x6 | x8 (D2 F2) | x8 |] %17
V:3
 C,4 | E,3 E, E,2 C,2 E,2 G,2 | C6 [C,G,]2 [E,G,]2 [C,G,]2 | G,2 [C,C]2 [D,B,]4 [D,A,]4 | %4
 [G,,B,]8 C,4 | E,3 E, E,2 C,2 E,2 G,2 | C6 [C,G,]2 [E,G,]2 [C,G,]2 | G,2 [C,C]2 [D,B,]4 [D,A,]4 | %8
 [G,,B,]6 E,2 E,2 E,2 | E,6 E,2 E,2 E,2 | E,6 E,2 E,2 E,2 | E,6 E,2 E,2 E,2 | C,6 E,2 A,2 G,2 | %13
 ^F,6 D,2 G,2 =F,2 | E,6 [C,G,]2 [D,G,]2 [E,G,]2 | [F,A,]2 [D,A,]2 G,4 [G,,G,]4 | [C,G,]8 |] %17
V:4
 C,4 | E,3 E, E,2 C,2 E,2 G,2 | x12 | G,2 x10 | x8 C,4 | E,3 E, E,2 C,2 E,2 G,2 | x12 | G,2 x10 | %8
 x12 | x12 | x12 | x12 | x6 E,2 A,2 G,2 | ^F,6 D,2 G,2 =F,2 | E,6 x6 | x4 G,4 x4 | x8 |] %17

